static/assets/template/assets/img/icons/essential/detailed/Conference.svg

<svg height="147" viewBox="0 0 112 147" width="112" xmlns="http://www.w3.org/2000/svg"><g fill="none" fill-rule="evenodd" transform="translate(1 1)"><g fill-rule="nonzero"><path d="m98.6 65.9h-90.5c-3.7 0-6.7-3-6.7-6.7v-52c0-3.7 3-6.7 6.7-6.7h90.5c3.7 0 6.7 3 6.7 6.7v52c0 3.7-3 6.7-6.7 6.7z"/><path d="m105.3 10.4v49.1c0 3.5-2.9 6.4-6.4 6.4h-87.2c-3.5 0-6.4-2.9-6.4-6.4v-49.1c0-3.5 2.9-6.4 6.4-6.4h87.2c3.5 0 6.4 2.8 6.4 6.4z"/><path d="m84.9 65.9h-58.4c-.4-3.1 2.1-6 4.9-7.4 2.9-1.5 6.1-1.9 9.1-3.2s5.8-3.7 6-7c.2-4.2-4.2-7.2-5.5-11.2-.5-1.7-.4-3.5-.4-5.2.2-4.4.4-8.9.5-13.3.1-1.5.1-2.9.6-4.3s1.4-2.7 2.7-3.2c.8-.4 1.8-.4 2.7-.4 3.5 0 7 .4 10.4 1.3 4.2 1.1 8.5 3.2 10.3 7.1 1.1 2.5 1.1 5.4.7 8.1-.4 3.5-1.3 7-2.5 10.3-.9 2.3-1.9 4.6-2.5 6.9-.6 2.4-.7 5 .4 7.2 1.4 3.1 4.7 4.8 7.9 6 3.2 1.1 6.6 1.9 9.4 3.7 1.6 1.1 3 2.7 3.7 4.6z"/><path d="m108.9 111.9c-10.9 3.9-18.3 3.7-29.1 0l1-11.7c.3-4.1 4.1-7.3 8.7-7.3h9.5c4.6 0 8.4 3.2 8.7 7.3z"/><circle cx="94.2" cy="81.8" r="8"/><path d="m29.8 111.9c-10.9 3.9-18.3 3.7-29.1 0l1-11.7c.3-4.1 4.1-7.3 8.7-7.3h9.5c4.6 0 8.4 3.2 8.7 7.3z"/><circle cx="15.1" cy="81.8" r="8"/><path d="m69.6 141.2c-10.9 3.9-18.3 3.7-29.1 0l1-11.7c.3-4.1 4.1-7.3 8.7-7.3h9.5c4.6 0 8.4 3.2 8.7 7.3z"/><circle cx="54.9" cy="111.1" r="8"/><path d="m108.9 112.4c-9.7 3.2-16.4 3-26 0l.9-9.5c.3-3.3 3.7-5.9 7.8-5.9h8.5c4.1 0 7.5 2.6 7.8 5.9z" fill="#b5d6ff"/><circle cx="96" cy="83.5" fill="#b5d6ff" r="6.2"/><path d="m29.8 112.4c-9.7 3.2-16.4 3-26 0l.9-9.5c.3-3.3 3.7-5.9 7.8-5.9h8.5c4.1 0 7.5 2.6 7.8 5.9z" fill="#b5d6ff"/><circle cx="16.7" cy="83.3" fill="#b5d6ff" r="6.4"/></g><path d="m108.9 111.9c-10.9 3.9-18.3 3.7-29.1 0l1-11.7c.3-4.1 4.1-7.3 8.7-7.3h9.5c4.6 0 8.4 3.2 8.7 7.3z" stroke-linecap="round" stroke-linejoin="round" stroke-width="3"/><path d="m91.6 74.2c.8-.3 1.7-.4 2.6-.4 4.4 0 8 3.6 8 8s-3.6 8-8 8-8-3.6-8-8c0-.6.1-1.2.2-1.7" stroke-linecap="round" stroke-linejoin="round" stroke-width="3"/><path d="m1.4 104.2.4-4c.3-4.1 4.1-7.3 8.7-7.3h9.5c4.6 0 8.4 3.2 8.7 7.3l1 11.7c-10.9 3.9-18.3 3.7-29.1 0v-.5" stroke-linecap="round" stroke-linejoin="round" stroke-width="3"/><circle cx="15.1" cy="81.8" r="8" stroke-linecap="round" stroke-linejoin="round" stroke-width="3"/><g stroke-linecap="round" stroke-linejoin="round" stroke-width="3" transform="translate(40 21)"><path d="m26.4 9.3c.1-.3.1-1 .1-1.6 0 0-.2-6-8.6-6.3s-9.2 1.2-11.8-1.2c.8 1.2.6 3.5-.4 5.6"/><path d="m25.3 17.2c0 .4-.1.8-.2 1.2-.3 1-.8 1.9-1.4 2.7-.3.3-.6.6-.9.9l-5.7 5.1c-1.5 1.2-3.5 1.1-4.9-.1l-3.9-2.8-2.2-1.5c-.4-.3-.7-.6-1-1-.1-.1-.2-.3-.3-.4s-.2-.3-.3-.4c-.1-.2-.2-.4-.3-.5-.2-.3-.3-.6-.4-1-.1-.2-.1-.3-.1-.5s-.1-.3-.1-.5-.1-.4-.1-.5"/><path d="m1.9 9.4c-1.2.4-1.7.4-1.4 2.5s.3 3.5.7 4.8 1.7 1 1.7 1"/><path d="m43.4 44.9c-.4-3.4-.8-5-5.3-6.7-3.6-1.3-9-3.5-12.1-4.8-1.5-.6-2.5-2.1-2.5-3.7v-8.4"/><path d="m25.5 17.7s.1 0 0 0h.1c.2 0 .8.1 1.2-.3 0 0 .1 0 .1-.1.1-.1.3-.3.3-.6 0-.2.1-.4.1-.5 0-.2.1-.3.1-.5.1-.7.2-1.4.3-2.3 0-.5.1-.9.2-1.5 0-.2 0-.4.1-.5 0-.3 0-.6 0-.8 0-.1 0-.2-.1-.3 0 0 0-.1-.1-.1 0 0 0-.1-.1-.1-.1-.1-.1-.2-.2-.2 0 0-.1 0-.1-.1 0 0-.1-.1-.2-.1-.2-.1-.5-.2-.8-.3"/></g><path d="m28.3 60.5c.7-.5 1.6-.9 2.7-1.3 3.6-1.3 9-3.5 12.1-4.8 1.5-.6 2.5-2.1 2.5-3.7v-7.2" stroke-linecap="round" stroke-linejoin="round" stroke-width="3"/><path d="m42.1 30.3c-4.2-9-2.2-14.7 1.6-16.6-1.3-2.8-1.3-3.8-1.3-3.8s8.1 1.4 10.9.8c3.5-.7 9 .1 11 4.8 2.8 1.1 7.8 4 3.1 14.3" stroke-linecap="round" stroke-linejoin="round" stroke-width="3"/><path d="m38.3.5h60.3c3.7 0 6.7 3 6.7 6.7v52c0 3.7-3 6.7-6.7 6.7h-90.5c-3.7 0-6.7-3-6.7-6.7v-52c0-3.7 3-6.7 6.7-6.7h6" stroke-linecap="round" stroke-linejoin="round" stroke-width="3"/><path d="m23.8.5h4.7" stroke-linecap="round" stroke-linejoin="round" stroke-width="3"/><path d="m85.8 126.4h-63.9c-1.4 0-2.5-1.4-2.1-2.8l14.4-48c.3-.9 1.1-1.5 2.1-1.5h35.1c1 0 1.8.6 2.1 1.5l14.4 48c.4 1.4-.6 2.8-2.1 2.8z" fill-rule="nonzero"/><path d="m85.8 126.4h-63.9c-1.4 0-2.5-1.4-2.1-2.8l14.4-48c.3-.9 1.1-1.5 2.1-1.5h35.1c1 0 1.8.6 2.1 1.5l14.4 48c.4 1.4-.6 2.8-2.1 2.8z" fill-rule="nonzero"/><path d="m35.8 126.4h-13.9c-1.4 0-2.5-1.4-2.1-2.8l8.5-28.2" stroke-linecap="round" stroke-linejoin="round" stroke-width="3"/><path d="m31.1 86.2 3.2-10.7c.3-.9 1.1-1.5 2.1-1.5h35.1c1 0 1.8.6 2.1 1.5l14.4 48c.4 1.4-.6 2.8-2.1 2.8h-42.4" stroke-linecap="round" stroke-linejoin="round" stroke-width="3"/><path d="m69.6 141.2c-10.9 3.9-18.3 3.7-29.1 0l1-11.7c.3-4.1 4.1-7.3 8.7-7.3h9.5c4.6 0 8.4 3.2 8.7 7.3z" fill-rule="nonzero"/><circle cx="54.9" cy="111.1" fill-rule="nonzero" r="8"/><path d="m69.6 141.7c-9.7 3.2-16.3 3.1-25.8 0l.9-9.6c.3-3.4 3.7-6 7.8-6h8.5c4.1 0 7.5 2.6 7.8 6z" fill="#b5d6ff" fill-rule="nonzero"/><circle cx="56.5" cy="112.7" fill="#b5d6ff" fill-rule="nonzero" r="6.4"/><path d="m69.6 141.2c-10.9 3.9-18.3 3.7-29.1 0l1-11.7c.3-4.1 4.1-7.3 8.7-7.3h9.5c4.6 0 8.4 3.2 8.7 7.3z" stroke-linecap="round" stroke-linejoin="round" stroke-width="3"/><circle cx="54.9" cy="111.1" r="8" stroke-linecap="round" stroke-linejoin="round" stroke-width="3"/></g></svg>

<?xml version="1.0" encoding="UTF-8"?>
<svg width="112px" height="147px" viewBox="0 0 112 147" version="1.1" xmlns="http://www.w3.org/2000/svg" xmlns:xlink="http://www.w3.org/1999/xlink">
    <!-- Generator: Sketch 51.2 (57519) - http://www.bohemiancoding.com/sketch -->
    <title>Conference</title>
    <desc>Created with Sketch.</desc>
    <defs></defs>
    <g id="Page-1" stroke="none" stroke-width="1" fill="none" fill-rule="evenodd">
        <g id="Conference" transform="translate(1.000000, 1.000000)">
            <path d="M98.6,65.9 L8.1,65.9 C4.4,65.9 1.4,62.9 1.4,59.2 L1.4,7.2 C1.4,3.5 4.4,0.5 8.1,0.5 L98.6,0.5 C102.3,0.5 105.3,3.5 105.3,7.2 L105.3,59.2 C105.3,62.9 102.3,65.9 98.6,65.9 Z" id="Shape" class="fill-neutral" fill-rule="nonzero"></path>
            <path d="M105.3,10.4 L105.3,59.5 C105.3,63 102.4,65.9 98.9,65.9 L11.7,65.9 C8.2,65.9 5.3,63 5.3,59.5 L5.3,10.4 C5.3,6.9 8.2,4 11.7,4 L98.9,4 C102.4,4 105.3,6.8 105.3,10.4 Z" id="Shape" class="fill-primary-100" fill-rule="nonzero"></path>
            <path d="M84.9,65.9 L26.5,65.9 C26.1,62.8 28.6,59.9 31.4,58.5 C34.3,57 37.5,56.6 40.5,55.3 C43.5,54 46.3,51.6 46.5,48.3 C46.7,44.1 42.3,41.1 41,37.1 C40.5,35.4 40.6,33.6 40.6,31.9 C40.8,27.5 41,23 41.1,18.6 C41.2,17.1 41.2,15.7 41.7,14.3 C42.2,12.9 43.1,11.6 44.4,11.1 C45.2,10.7 46.2,10.7 47.1,10.7 C50.6,10.7 54.1,11.1 57.5,12 C61.7,13.1 66,15.2 67.8,19.1 C68.9,21.6 68.9,24.5 68.5,27.2 C68.1,30.7 67.2,34.2 66,37.5 C65.1,39.8 64.1,42.1 63.5,44.4 C62.9,46.8 62.8,49.4 63.9,51.6 C65.3,54.7 68.6,56.4 71.8,57.6 C75,58.7 78.4,59.5 81.2,61.3 C82.8,62.4 84.2,64 84.9,65.9 Z" id="Shape" class="fill-neutral" fill-rule="nonzero"></path>
            <path d="M108.9,111.9 C98,115.8 90.6,115.6 79.8,111.9 L80.8,100.2 C81.1,96.1 84.9,92.9 89.5,92.9 L99,92.9 C103.6,92.9 107.4,96.1 107.7,100.2 L108.9,111.9 Z" id="Shape" class="fill-neutral" fill-rule="nonzero"></path>
            <circle id="Oval" class="fill-neutral" fill-rule="nonzero" cx="94.2" cy="81.8" r="8"></circle>
            <path d="M29.8,111.9 C18.9,115.8 11.5,115.6 0.7,111.9 L1.7,100.2 C2,96.1 5.8,92.9 10.4,92.9 L19.9,92.9 C24.5,92.9 28.3,96.1 28.6,100.2 L29.8,111.9 Z" id="Shape" class="fill-neutral" fill-rule="nonzero"></path>
            <circle id="Oval" class="fill-neutral" fill-rule="nonzero" cx="15.1" cy="81.8" r="8"></circle>
            <path d="M69.6,141.2 C58.7,145.1 51.3,144.9 40.5,141.2 L41.5,129.5 C41.8,125.4 45.6,122.2 50.2,122.2 L59.7,122.2 C64.3,122.2 68.1,125.4 68.4,129.5 L69.6,141.2 Z" id="Shape" class="fill-neutral" fill-rule="nonzero"></path>
            <circle id="Oval" class="fill-neutral" fill-rule="nonzero" cx="54.9" cy="111.1" r="8"></circle>
            <path d="M108.9,112.4 C99.2,115.6 92.5,115.4 82.9,112.4 L83.8,102.9 C84.1,99.6 87.5,97 91.6,97 L100.1,97 C104.2,97 107.6,99.6 107.9,102.9 L108.9,112.4 Z" id="Shape" fill="#B5D6FF" fill-rule="nonzero"></path>
            <circle id="Oval" fill="#B5D6FF" fill-rule="nonzero" cx="96" cy="83.5" r="6.2"></circle>
            <path d="M29.8,112.4 C20.1,115.6 13.4,115.4 3.8,112.4 L4.7,102.9 C5,99.6 8.4,97 12.5,97 L21,97 C25.1,97 28.5,99.6 28.8,102.9 L29.8,112.4 Z" id="Shape" fill="#B5D6FF" fill-rule="nonzero"></path>
            <circle id="Oval" fill="#B5D6FF" fill-rule="nonzero" cx="16.7" cy="83.3" r="6.4"></circle>
            <path d="M108.9,111.9 C98,115.8 90.6,115.6 79.8,111.9 L80.8,100.2 C81.1,96.1 84.9,92.9 89.5,92.9 L99,92.9 C103.6,92.9 107.4,96.1 107.7,100.2 L108.9,111.9 Z" id="Shape" class="stroke-primary" stroke-width="3" stroke-linecap="round" stroke-linejoin="round"></path>
            <path d="M91.6,74.2 C92.4,73.9 93.3,73.8 94.2,73.8 C98.6,73.8 102.2,77.4 102.2,81.8 C102.2,86.2 98.6,89.8 94.2,89.8 C89.8,89.8 86.2,86.2 86.2,81.8 C86.2,81.2 86.3,80.6 86.4,80.1" id="Shape" class="stroke-primary" stroke-width="3" stroke-linecap="round" stroke-linejoin="round"></path>
            <path d="M1.4,104.2 L1.8,100.2 C2.1,96.1 5.9,92.9 10.5,92.9 L20,92.9 C24.6,92.9 28.4,96.1 28.7,100.2 L29.7,111.9 C18.8,115.8 11.4,115.6 0.6,111.9 L0.6,111.4" id="Shape" class="stroke-primary" stroke-width="3" stroke-linecap="round" stroke-linejoin="round"></path>
            <circle id="Oval" class="stroke-primary" stroke-width="3" stroke-linecap="round" stroke-linejoin="round" cx="15.1" cy="81.8" r="8"></circle>
            <g id="Group" transform="translate(40.000000, 21.000000)" class="stroke-primary" stroke-linecap="round" stroke-linejoin="round" stroke-width="3">
                <path d="M26.4,9.3 C26.5,9 26.5,8.3 26.5,7.7 C26.5,7.7 26.3,1.7 17.9,1.4 C9.5,1.1 8.7,2.6 6.1,0.2 C6.9,1.4 6.7,3.7 5.7,5.8" id="Shape"></path>
                <path d="M25.3,17.2 C25.3,17.6 25.2,18 25.1,18.4 C24.8,19.4 24.3,20.3 23.7,21.1 C23.4,21.4 23.1,21.7 22.8,22 L17.1,27.1 C15.6,28.3 13.6,28.2 12.2,27 L8.3,24.2 L6.1,22.7 C5.7,22.4 5.4,22.1 5.1,21.7 C5,21.6 4.9,21.4 4.8,21.3 C4.7,21.2 4.6,21 4.5,20.9 C4.4,20.7 4.3,20.5 4.2,20.4 C4,20.1 3.9,19.8 3.8,19.4 C3.7,19.2 3.7,19.1 3.7,18.9 C3.7,18.7 3.6,18.6 3.6,18.4 C3.6,18.2 3.5,18 3.5,17.9" id="Shape"></path>
                <path d="M1.9,9.4 C0.7,9.8 0.2,9.8 0.5,11.9 C0.8,14 0.8,15.4 1.2,16.7 C1.6,18 2.9,17.7 2.9,17.7" id="Shape"></path>
                <path d="M43.4,44.9 C43,41.5 42.6,39.9 38.1,38.2 C34.5,36.9 29.1,34.7 26,33.4 C24.5,32.8 23.5,31.3 23.5,29.7 L23.5,21.3" id="Shape"></path>
                <path d="M25.5,17.7 C25.5,17.7 25.6,17.7 25.5,17.7 C25.6,17.7 25.6,17.7 25.6,17.7 C25.8,17.7 26.4,17.8 26.8,17.4 C26.8,17.4 26.9,17.4 26.9,17.3 C27,17.2 27.2,17 27.2,16.7 C27.2,16.5 27.3,16.3 27.3,16.2 C27.3,16 27.4,15.9 27.4,15.7 C27.5,15 27.6,14.3 27.7,13.4 C27.7,12.9 27.8,12.5 27.9,11.9 C27.9,11.7 27.9,11.5 28,11.4 C28,11.1 28,10.8 28,10.6 C28,10.6 28,10.6 28,10.6 C28,10.5 28,10.4 27.9,10.3 C27.9,10.3 27.9,10.2 27.8,10.2 C27.8,10.2 27.8,10.1 27.7,10.1 C27.6,10 27.6,9.9 27.5,9.9 C27.5,9.9 27.4,9.9 27.4,9.8 C27.4,9.8 27.3,9.7 27.2,9.7 C27.2,9.7 27.2,9.7 27.2,9.7 C27,9.6 26.7,9.5 26.4,9.4" id="Shape"></path>
            </g>
            <path d="M28.3,60.5 C29,60 29.9,59.6 31,59.2 C34.6,57.9 40,55.7 43.1,54.4 C44.6,53.8 45.6,52.3 45.6,50.7 L45.6,43.5" id="Shape" class="stroke-primary" stroke-width="3" stroke-linecap="round" stroke-linejoin="round"></path>
            <path d="M42.1,30.3 C37.9,21.3 39.9,15.6 43.7,13.7 C42.4,10.9 42.4,9.9 42.4,9.9 C42.4,9.9 50.5,11.3 53.3,10.7 C56.8,10 62.3,10.8 64.3,15.5 C67.1,16.6 72.1,19.5 67.4,29.8" id="Shape" class="stroke-primary" stroke-width="3" stroke-linecap="round" stroke-linejoin="round"></path>
            <path d="M38.3,0.5 L98.6,0.5 C102.3,0.5 105.3,3.5 105.3,7.2 L105.3,59.2 C105.3,62.9 102.3,65.9 98.6,65.9 L8.1,65.9 C4.4,65.9 1.4,62.9 1.4,59.2 L1.4,7.2 C1.4,3.5 4.4,0.5 8.1,0.5 L14.1,0.5" id="Shape" class="stroke-primary" stroke-width="3" stroke-linecap="round" stroke-linejoin="round"></path>
            <path d="M23.8,0.5 L28.5,0.5" id="Shape" class="stroke-primary" stroke-width="3" stroke-linecap="round" stroke-linejoin="round"></path>
            <path d="M85.8,126.4 L21.9,126.4 C20.5,126.4 19.4,125 19.8,123.6 L34.2,75.6 C34.5,74.7 35.3,74.1 36.3,74.1 L71.4,74.1 C72.4,74.1 73.2,74.7 73.5,75.6 L87.9,123.6 C88.3,125 87.3,126.4 85.8,126.4 Z" id="Shape" class="fill-neutral" fill-rule="nonzero"></path>
            <path d="M85.8,126.4 L21.9,126.4 C20.5,126.4 19.4,125 19.8,123.6 L34.2,75.6 C34.5,74.7 35.3,74.1 36.3,74.1 L71.4,74.1 C72.4,74.1 73.2,74.7 73.5,75.6 L87.9,123.6 C88.3,125 87.3,126.4 85.8,126.4 Z" id="Shape" class="fill-neutral" fill-rule="nonzero"></path>
            <path d="M35.8,126.4 L21.9,126.4 C20.5,126.4 19.4,125 19.8,123.6 L28.3,95.4" id="Shape" class="stroke-primary" stroke-width="3" stroke-linecap="round" stroke-linejoin="round"></path>
            <path d="M31.1,86.2 L34.3,75.5 C34.6,74.6 35.4,74 36.4,74 L71.5,74 C72.5,74 73.3,74.6 73.6,75.5 L88,123.5 C88.4,124.9 87.4,126.3 85.9,126.3 L43.5,126.3" id="Shape" class="stroke-primary" stroke-width="3" stroke-linecap="round" stroke-linejoin="round"></path>
            <path d="M69.6,141.2 C58.7,145.1 51.3,144.9 40.5,141.2 L41.5,129.5 C41.8,125.4 45.6,122.2 50.2,122.2 L59.7,122.2 C64.3,122.2 68.1,125.4 68.4,129.5 L69.6,141.2 Z" id="Shape" class="fill-neutral" fill-rule="nonzero"></path>
            <circle id="Oval" class="fill-neutral" fill-rule="nonzero" cx="54.9" cy="111.1" r="8"></circle>
            <path d="M69.6,141.7 C59.9,144.9 53.3,144.8 43.8,141.7 L44.7,132.1 C45,128.7 48.4,126.1 52.5,126.1 L61,126.1 C65.1,126.1 68.5,128.7 68.8,132.1 L69.6,141.7 Z" id="Shape" fill="#B5D6FF" fill-rule="nonzero"></path>
            <circle id="Oval" fill="#B5D6FF" fill-rule="nonzero" cx="56.5" cy="112.7" r="6.4"></circle>
            <path d="M69.6,141.2 C58.7,145.1 51.3,144.9 40.5,141.2 L41.5,129.5 C41.8,125.4 45.6,122.2 50.2,122.2 L59.7,122.2 C64.3,122.2 68.1,125.4 68.4,129.5 L69.6,141.2 Z" id="Shape" class="stroke-primary" stroke-width="3" stroke-linecap="round" stroke-linejoin="round"></path>
            <circle id="Oval" class="stroke-primary" stroke-width="3" stroke-linecap="round" stroke-linejoin="round" cx="54.9" cy="111.1" r="8"></circle>
        </g>
    </g>
</svg>
